symbolic/status/display-brightness-off-symbolic.svg

<svg xmlns="http://www.w3.org/2000/svg" width="16" height="16" version="1.1">
 <path style="fill:#dfdfdf;opacity:0.3" d="M 8,0.721 5.8105,3.0003 H 3 V 5.8108 L 0.7207,8.0003 3,10.221 V 13 H 5.8105 L 8,15.279 10.221,13 H 13 V 10.221 L 15.279,8.0003 13,6.0003 V 3.0003 H 10.221 Z M 8,4.0003 C 10.21,4.0003 12,5.7903 12,8.0003 12,10.21 10.21,12 8,12 5.79,12 4,10.21 4,8.0003 4,5.7903 5.79,4.0003 8,4.0003 Z M 8,5.0003 C 6.3431,5.0003 5,6.3434 5,8.0003 5,9.6572 6.3431,11 8,11 Z"/>
</svg>

<svg xmlns="http://www.w3.org/2000/svg" width="16" height="16"><path d="M8 .721l-2.19 2.28H3v2.81L.72 8 3 10.22V13h2.81L8 15.279 10.221 13H13v-2.779l2.279-2.22L13 6V3h-2.779zm0 3.28c2.21 0 4 1.79 4 4C12 10.21 10.21 12 8 12s-4-1.79-4-4 1.79-4 4-4zm0 1A3 3 0 1 0 8 11z" fill="#f8f8f2" opacity=".3"/></svg>
